dist/svgs/crypto-icons/icons/nmc.svg

<?xml version="1.0" encoding="UTF-8" standalone="yes"?>
<svg xmlns="http://www.w3.org/2000/svg" xmlns:xlink="http://www.w3.org/1999/xlink" width="512px" height="512px" viewBox="0 0 384 384" version="1.1">
  <g id="surface1">
    <path style=" stroke:none;fill-rule:nonzero;fill:rgb(0%,0%,0%);fill-opacity:1;" d="M 333.800781 43.554688 C 318.855469 54.90625 313.738281 72.894531 313.738281 72.894531 L 275.398438 213.921875 L 145.035156 35.390625 C 145.035156 35.390625 115.972656 33.730469 105.453125 37.601562 C 94.933594 41.480469 80.820312 51.722656 74.914062 74.234375 C 69.007812 96.746094 0 348.804688 0 348.804688 C 0 348.804688 33.488281 349.960938 44.007812 344.144531 C 54.527344 338.332031 65.042969 331.96875 71.40625 309.6875 C 75.765625 294.441406 109.328125 169.082031 109.328125 169.082031 L 239.972656 348.804688 C 239.972656 348.804688 271.390625 349.71875 281.902344 344.976562 C 294.5 339.300781 305.292969 325.460938 309.441406 309.6875 C 313.597656 293.910156 383.621094 35.035156 383.621094 35.035156 C 383.621094 35.035156 348.75 32.207031 333.800781 43.554688 Z M 251.320312 299.726562 L 122.152344 122.207031 L 131.746094 83.089844 L 262.757812 263.554688 Z M 251.320312 299.726562 "/>
  </g>
</svg>

<svg xmlns="http://www.w3.org/2000/svg" viewBox="0 0 384 384"><path d="M333.8 43.555c-14.945 11.351-20.062 29.34-20.062 29.34l-38.34 141.027L145.035 35.39s-29.062-1.66-39.582 2.21c-10.52 3.88-24.633 14.122-30.539 36.633C69.008 96.746 0 348.804 0 348.804s33.488 1.157 44.008-4.66c10.52-5.812 21.035-12.175 27.398-34.457 4.36-15.246 37.922-140.605 37.922-140.605l130.645 179.723s31.418.914 41.93-3.828c12.597-5.676 23.39-19.516 27.538-35.29 4.157-15.777 74.18-274.652 74.18-274.652s-34.871-2.828-49.82 8.52zm-82.48 256.172l-129.168-177.52 9.594-39.117 131.012 180.465zm0 0"/></svg>
